Adwaita++-Dark/actions/22/format-text-symbol.svg

<svg height="22" viewBox="0 0 22 22" width="22" xmlns="http://www.w3.org/2000/svg">
  <path d="m5.375.98046875s-4.375.000025-4.375 4.37500005c.873975-1.7478751 1.3822-1.3535188 4-1.3554688-.010461 9.57-2.247825 8.960531-2.25 10.488281 1.31325 1.008075 3.36495.44935 3.515625-1.53125l.734375-8.9843748 3-.0117187-.25 9.0507815c0 2.625 3.50005 2.625 4.375 0l.875-2.625c-.875025 1.749975-3.500628 4.37425-3.423828 1.703125l.423828-8.1152346 3-.0097656v-2.98437505z" fill="#e6ddff" transform="translate(3 3)"/>
</svg>

<svg xmlns="http://www.w3.org/2000/svg" width="22" height="22" viewBox="0 0 22 22">
 <defs>
  <style id="current-color-scheme" type="text/css">
   .ColorScheme-Text { color:#E6DDFF; } .ColorScheme-Highlight { color:#4285f4; }
  </style>
 </defs>
 <path style="fill:currentColor" class="ColorScheme-Text" d="M 5.375 0.98046875 C 5.375 0.98046875 1 0.98049375 1 5.3554688 C 1.873975 3.6075937 2.3822 4.00195 5 4 C 4.989539 13.57 2.752175 12.960531 2.75 14.488281 C 4.06325 15.496356 6.11495 14.937631 6.265625 12.957031 L 7 3.9726562 L 10 3.9609375 L 9.75 13.011719 C 9.75 15.636719 13.25005 15.636719 14.125 13.011719 L 15 10.386719 C 14.124975 12.136694 11.499372 14.760969 11.576172 12.089844 L 12 3.9746094 L 15 3.9648438 L 15 0.98046875 L 5.375 0.98046875 z" transform="translate(3 3)"/>
</svg>
